build-source/logos/cinepluspremierhd.default.svg

<svg xmlns="http://www.w3.org/2000/svg" viewBox="0 0 477.94 283.37"><defs><clipPath id="0"><path d="m44.661 334.27h21.16v11.352h-21.16v-11.352"/></clipPath><clipPath id="1"><path d="m45.866 334.92h16.859v9.995h-16.859v-9.995"/></clipPath><clipPath><path d="m0 0h524.41v651.97h-524.41v-651.97"/></clipPath></defs><g transform="translate(-84.16-391.72)"><g clip-path="url(#1)" transform="matrix(28.35007 0 0-28.35007-1216.14 10170.02)"><path d="m45.865 339.08h13.846v4.373h-13.846v-4.373" fill="#383536"/></g><g clip-path="url(#0)" transform="matrix(28.35007 0 0-28.35007-1216.14 10170.02)"><g fill="#fff"><path d="m0 0c0-.036-.029-.065-.091-.088-.174-.058-.334-.088-.484-.088-.226 0-.441.056-.65.17-.419.23-.651.617-.651 1.095 0 .263.072.501.212.716.144.214.337.374.579.474.157.069.324.101.503.101.122 0 .252-.02.392-.056.043-.009.076-.023.105-.035l.036-.017c.029-.013.046-.036.046-.064v-.628c0-.017-.007-.023-.017-.023-.003 0-.013.006-.029.017-.049.048-.121.088-.216.119-.101.036-.193.053-.271.053-.284 0-.523-.15-.631-.4-.035-.081-.052-.169-.052-.264 0-.185.069-.335.206-.451.127-.107.285-.163.471-.163.212 0 .375.059.496.179.001.013.02.02.026.02.013 0 .02-.02.02-.063v-.604" transform="translate(48.48 340.26)"/><path d="m48.946 340.15h.637v2.439h-.637v-2.439"/><path d="m0 0l-1.17 1.492v-1.492h-.637v2.439h.637l1.17-1.493v1.493h.637v-2.439h-.637" transform="translate(51.9 340.15)"/><path d="m0 0v2.439h.213l.035.1h.968l-.036-.1h.212v-.537h-.755v-.406h.717v-.537h-.717v-.422h.755v-.537h-1.392" transform="translate(52.983 340.15)"/></g><path d="m0 0c-4.375-.473-8.748-.946-13.12-1.42-.135 1.524-.27 3.046-.405 4.568 4.361.249 8.721.496 13.08.744.148-1.297.296-2.595.446-3.892" fill="#ec1b27" transform="translate(62.37 336.34)"/><g fill="#fff"><path d="m0 0c.016-.169-.092-.315-.241-.327-.035-.003-.053-.004-.088-.007-.096-.007-.143-.012-.239-.019-.021.238-.043.479-.065.717.096.008.143.011.239.017.018.002.059.005.059.005.164.011.312-.131.328-.319.004-.027.004-.04.007-.067m-.385.932c-.049-.004-.075-.006-.124-.009-.216-.015-.433-.029-.65-.043.091-1.01.181-2.02.272-3.02.191.018.286.028.477.047-.035.398-.072.797-.108 1.195.131.012.196.018.327.029.446.042.706.49.667.907-.002.025-.004.048-.006.068-.04.434-.391.854-.855.828" transform="translate(50.725 337.89)"/><path d="m0 0c.259.025.516.049.775.073.021-.208.031-.312.051-.519-.417-.041-.834-.084-1.251-.124-.093.965-.186 1.931-.279 2.897.416.027.833.055 1.25.082.019-.208.029-.311.05-.52-.258-.018-.516-.037-.774-.055.023-.235.035-.354.058-.589.258.021.516.04.774.061.02-.208.031-.312.051-.519-.259-.023-.516-.044-.775-.066.023-.241.047-.48.07-.721" transform="translate(53.893 336.68)"/><path d="m0 0c-.051.515-.102 1.028-.154 1.541.19-.5.38-1 .573-1.499.142.014.213.022.357.035.087.521.174 1.041.261 1.56.053-.506.105-1.012.156-1.518.191.019.286.028.477.048-.095.921-.191 1.843-.287 2.767-.214-.015-.32-.022-.535-.036-.123-.564-.246-1.126-.368-1.692-.236.541-.47 1.082-.703 1.623-.214-.014-.321-.022-.536-.036.094-.947.189-1.893.283-2.841.19.02.286.029.476.048" transform="translate(55.6 336.32)"/><path d="m0 0c.095.007.143.0001.238.016.019.002.06.005.06.005.164.011.312-.127.329-.311.002-.025.003-.039.005-.067.016-.165-.091-.308-.238-.32-.036-.003-.055-.004-.09-.007-.095-.007-.143-.011-.238-.019-.022.234-.044.468-.066.703m1.109-.32c-.002.025-.004.046-.006.066-.042.435-.397.834-.856.808-.049 0-.074-.003-.124-.006-.217-.015-.433-.03-.65-.044.092-.987.183-1.974.276-2.962.191.019.286.028.477.048-.037.39-.074.78-.11 1.171.099.009.148.013.247.021.145-.379.29-.758.436-1.136.2.02.3.03.5.05-.161.415-.321.831-.482 1.246.216.18.319.461.292.738" transform="translate(51.838 338.38)"/><path d="m0 0c.096-.918.192-1.835.287-2.754.192.02.287.029.477.048-.095.913-.191 1.824-.287 2.737-.191-.013-.286-.019-.477-.031" transform="translate(57.38 339.28)"/><path d="m0 0c.257.025.516.049.775.072.022-.194.032-.291.054-.487-.418-.042-.835-.083-1.253-.125-.097.908-.193 1.815-.289 2.723.417.027.832.054 1.249.082.022-.195.032-.293.053-.487-.257-.019-.515-.037-.773-.056.024-.221.034-.332.058-.554.259.021.517.042.776.061.02-.194.031-.292.052-.486-.259-.022-.516-.045-.775-.066.024-.225.049-.452.073-.677" transform="translate(59.01 337.16)"/><path d="m0 0c.095.008.143.011.239.018.018 0 .059.004.059.004.164.012.313-.113.331-.277.002-.025.003-.036.007-.06.016-.148-.09-.279-.239-.291-.034-.002-.195-.015-.231-.019l-.096-.007c-.028.253-.042.38-.07.632m1.122-.278c-.003.021-.005.042-.007.059-.049.422-.435.746-.861.722-.049-.004-.074-.005-.124-.009-.217-.014-.433-.027-.649-.042.096-.889.195-1.777.291-2.665.192.018.287.027.478.047-.039.351-.078.703-.117 1.053.1.009.149.013.248.022.146-.34.295-.679.442-1.018.2.02.301.029.501.049-.165.372-.327.744-.49 1.116.207.155.317.409.288.666" transform="translate(60.45 338.99)"/><path d="m0 0v-.878c0-.033-.006-.046-.033-.046h-.669c-.022 0-.036.016-.036.04v.878c0 .035-.013.048-.042.048h-.868c-.026 0-.038.017-.038.046v.665c0 .026.009.039.035.039h.874c.026 0 .039.014.039.043v.754c0 .019.014.032.033.032h.666c.027 0 .039-.009.039-.032v-.754c0-.036.006-.043.036-.043h.874c.026 0 .035-.013.035-.042v-.668c0-.023-.011-.04-.035-.04h-.864c-.036 0-.046-.006-.046-.042" transform="translate(57.914 341.02)"/></g><path d="m0 0c-.098.729-.195 1.458-.292 2.186h-4.664c.194-.947.388-1.895.583-2.842 1.457.219 2.915.437 4.373.656" fill="#ec1b27" transform="translate(62.725 342.73)"/><g fill="#fff"><path d="m0 0c-.048.266-.073.399-.121.665-.237-.018-.355-.027-.592-.046.053-.275.08-.412.132-.686-.161-.019-.241-.029-.403-.048-.112.568-.224 1.137-.335 1.706.167.004.252.005.419.001.051-.259.075-.387.123-.646.239.014.358.021.596.035-.046.25-.069.375-.114.624.168.004.252.006.42.011.092-.526.185-1.052.278-1.578-.161-.019-.242-.028-.403-.047" transform="translate(59.878 342.87)"/><path d="m0 0c-.037-.002-.057-.002-.094-.004.054-.335.082-.502.135-.836.036.003.056.005.092.008.269.026.42.203.383.447-.037.246-.241.397-.516.385m.284-1.147c-.236-.028-.355-.041-.592-.069-.087.51-.172 1.02-.259 1.531.247.006.371.009.618.014.408 0 .834-.282.894-.684.059-.384-.273-.739-.661-.792" transform="translate(61.09 344.19)"/></g></g></g></svg>

<?xml version="1.0" encoding="UTF-8" standalone="no"?>
<!-- Created with Inkscape (http://www.inkscape.org/) -->

<svg
   xmlns:dc="http://purl.org/dc/elements/1.1/"
   xmlns:cc="http://creativecommons.org/ns#"
   xmlns:rdf="http://www.w3.org/1999/02/22-rdf-syntax-ns#"
   xmlns:svg="http://www.w3.org/2000/svg"
   xmlns="http://www.w3.org/2000/svg"
   xmlns:sodipodi="http://sodipodi.sourceforge.net/DTD/sodipodi-0.dtd"
   xmlns:inkscape="http://www.inkscape.org/namespaces/inkscape"
   width="477.93973"
   height="283.37341"
   id="svg127641"
   version="1.1"
   inkscape:version="0.48.4 r9939"
   sodipodi:docname="Documento nuevo 30">
  <defs
     id="defs127643">
    <clipPath
       clipPathUnits="userSpaceOnUse"
       id="clipPath121653">
      <path
         inkscape:connector-curvature="0"
         d="m 44.661,334.275 21.164,0 0,11.352 -21.164,0 0,-11.352 z"
         id="path121655" />
    </clipPath>
    <clipPath
       clipPathUnits="userSpaceOnUse"
       id="clipPath121643">
      <path
         inkscape:connector-curvature="0"
         d="m 45.866,334.918 16.859,0 0,9.995 -16.859,0 0,-9.995 z"
         id="path121645" />
    </clipPath>
    <clipPath
       clipPathUnits="userSpaceOnUse"
       id="clipPath121633">
      <path
         inkscape:connector-curvature="0"
         d="m 0,0 524.409,0 0,651.968 L 0,651.968 0,0 z"
         id="path121635" />
    </clipPath>
  </defs>
  <sodipodi:namedview
     id="base"
     pagecolor="#ffffff"
     bordercolor="#666666"
     borderopacity="1.0"
     inkscape:pageopacity="0"
     inkscape:pageshadow="2"
     inkscape:zoom="0.35"
     inkscape:cx="265.83859"
     inkscape:cy="142.72853"
     inkscape:document-units="px"
     inkscape:current-layer="layer1"
     showgrid="false"
     fit-margin-top="0"
     fit-margin-left="0"
     fit-margin-right="0"
     fit-margin-bottom="0"
     inkscape:window-width="698"
     inkscape:window-height="453"
     inkscape:window-x="26"
     inkscape:window-y="26"
     inkscape:window-maximized="0" />
  <metadata
     id="metadata127646">
    <rdf:RDF>
      <cc:Work
         rdf:about="">
        <dc:format>image/svg+xml</dc:format>
        <dc:type
           rdf:resource="http://purl.org/dc/dcmitype/StillImage" />
        <dc:title></dc:title>
      </cc:Work>
    </rdf:RDF>
  </metadata>
  <g
     inkscape:label="Capa 1"
     inkscape:groupmode="layer"
     id="layer1"
     transform="translate(-84.161411,-391.71731)">
    <g
       id="g127744">
      <g
         id="g121639"
         transform="matrix(28.35007,0,0,-28.35007,-1216.1429,10170.025)">
        <g
           clip-path="url(#clipPath121643)"
           id="g121641">
          <path
             id="path121647"
             style="fill:#383536;fill-opacity:1;fill-rule:nonzero;stroke:none"
             d="m 45.865,339.084 13.846,0 0,4.373 -13.846,0 0,-4.373 z"
             inkscape:connector-curvature="0" />
        </g>
      </g>
      <g
         id="g121649"
         transform="matrix(28.35007,0,0,-28.35007,-1216.1429,10170.025)">
        <g
           clip-path="url(#clipPath121653)"
           id="g121651">
          <g
             transform="translate(48.479507,340.2614)"
             id="g121657">
            <path
               id="path121659"
               style="fill:#ffffff;fill-opacity:1;fill-rule:nonzero;stroke:none"
               d="m 0,0 c 0,-0.036 -0.029,-0.065 -0.091,-0.088 -0.174,-0.058 -0.334,-0.088 -0.484,-0.088 -0.226,0 -0.441,0.056 -0.65,0.17 -0.419,0.23 -0.651,0.617 -0.651,1.095 0,0.263 0.072,0.501 0.212,0.716 0.144,0.214 0.337,0.374 0.579,0.474 0.157,0.069 0.324,0.101 0.503,0.101 0.122,0 0.252,-0.02 0.392,-0.056 0.043,-0.009 0.076,-0.023 0.105,-0.035 L -0.049,2.272 C -0.02,2.259 -0.003,2.236 -0.003,2.208 l 0,-0.628 c 0,-0.017 -0.007,-0.023 -0.017,-0.023 -0.003,0 -0.013,0.006 -0.029,0.017 -0.049,0.048 -0.121,0.088 -0.216,0.119 -0.101,0.036 -0.193,0.053 -0.271,0.053 -0.284,0 -0.523,-0.15 -0.631,-0.4 -0.035,-0.081 -0.052,-0.169 -0.052,-0.264 0,-0.185 0.069,-0.335 0.206,-0.451 0.127,-0.107 0.285,-0.163 0.471,-0.163 0.212,0 0.375,0.059 0.496,0.179 0.01,0.013 0.02,0.02 0.026,0.02 C -0.007,0.667 0,0.647 0,0.604 L 0,0"
               inkscape:connector-curvature="0" />
          </g>
          <path
             id="path121661"
             style="fill:#ffffff;fill-opacity:1;fill-rule:nonzero;stroke:none"
             d="m 48.946,340.151 0.637,0 0,2.439 -0.637,0 0,-2.439 z"
             inkscape:connector-curvature="0" />
          <g
             transform="translate(51.899902,340.1505)"
             id="g121663">
            <path
               id="path121665"
               style="fill:#ffffff;fill-opacity:1;fill-rule:nonzero;stroke:none"
               d="m 0,0 -1.17,1.492 0,-1.492 -0.637,0 0,2.439 0.637,0 L 0,0.946 0,2.439 0.637,2.439 0.637,0 0,0 z"
               inkscape:connector-curvature="0" />
          </g>
          <g
             transform="translate(52.983002,340.1505)"
             id="g121667">
            <path
               id="path121669"
               style="fill:#ffffff;fill-opacity:1;fill-rule:nonzero;stroke:none"
               d="m 0,0 0,2.439 0.213,0 0.035,0.1 0.968,0 -0.036,-0.1 0.212,0 0,-0.537 -0.755,0 0,-0.406 0.717,0 0,-0.537 -0.717,0 0,-0.422 0.755,0 L 1.392,0 0,0 z"
               inkscape:connector-curvature="0" />
          </g>
          <g
             transform="translate(62.371902,336.33749)"
             id="g121671">
            <path
               id="path121673"
               style="fill:#ec1b27;fill-opacity:1;fill-rule:nonzero;stroke:none"
               d="m 0,0 c -4.375,-0.473 -8.748,-0.946 -13.123,-1.42 -0.135,1.524 -0.27,3.046 -0.405,4.568 4.361,0.249 8.721,0.496 13.082,0.744 C -0.298,2.595 -0.15,1.297 0,0"
               inkscape:connector-curvature="0" />
          </g>
          <g
             transform="translate(50.724701,337.8875)"
             id="g121675">
            <path
               id="path121677"
               style="fill:#ffffff;fill-opacity:1;fill-rule:nonzero;stroke:none"
               d="m 0,0 c 0.016,-0.169 -0.092,-0.315 -0.241,-0.327 -0.035,-0.003 -0.053,-0.004 -0.088,-0.007 -0.096,-0.007 -0.143,-0.012 -0.239,-0.019 -0.021,0.238 -0.043,0.479 -0.065,0.717 0.096,0.008 0.143,0.011 0.239,0.017 0.018,0.002 0.059,0.005 0.059,0.005 0.164,0.011 0.312,-0.131 0.328,-0.319 C -0.003,0.04 -0.003,0.027 0,0 M -0.385,0.932 C -0.434,0.928 -0.46,0.926 -0.509,0.923 -0.725,0.908 -0.942,0.894 -1.159,0.88 c 0.091,-1.007 0.181,-2.015 0.272,-3.022 0.191,0.018 0.286,0.028 0.477,0.047 -0.035,0.398 -0.072,0.797 -0.108,1.195 0.131,0.012 0.196,0.018 0.327,0.029 0.446,0.042 0.706,0.49 0.667,0.907 C 0.474,0.061 0.472,0.084 0.47,0.104 0.43,0.538 0.079,0.958 -0.385,0.932"
               inkscape:connector-curvature="0" />
          </g>
          <g
             transform="translate(53.893204,336.6769)"
             id="g121679">
            <path
               id="path121681"
               style="fill:#ffffff;fill-opacity:1;fill-rule:nonzero;stroke:none"
               d="M 0,0 C 0.259,0.025 0.516,0.049 0.775,0.073 0.796,-0.135 0.806,-0.239 0.826,-0.446 0.409,-0.487 -0.008,-0.53 -0.425,-0.57 -0.518,0.395 -0.611,1.361 -0.704,2.327 -0.288,2.354 0.129,2.382 0.546,2.409 0.565,2.201 0.575,2.098 0.596,1.889 0.338,1.871 0.08,1.852 -0.178,1.834 -0.155,1.599 -0.143,1.48 -0.12,1.245 0.138,1.266 0.396,1.285 0.654,1.306 0.674,1.098 0.685,0.994 0.705,0.787 0.446,0.764 0.189,0.743 -0.07,0.721 -0.047,0.48 -0.023,0.241 0,0"
               inkscape:connector-curvature="0" />
          </g>
          <g
             transform="translate(55.599899,336.31889)"
             id="g121683">
            <path
               id="path121685"
               style="fill:#ffffff;fill-opacity:1;fill-rule:nonzero;stroke:none"
               d="m 0,0 c -0.051,0.515 -0.102,1.028 -0.154,1.541 0.19,-0.5 0.38,-1 0.573,-1.499 C 0.561,0.056 0.632,0.064 0.776,0.077 0.863,0.598 0.95,1.118 1.037,1.637 1.09,1.131 1.142,0.625 1.193,0.119 1.384,0.138 1.479,0.147 1.67,0.167 1.575,1.088 1.479,2.01 1.383,2.934 1.169,2.919 1.063,2.912 0.848,2.898 0.725,2.334 0.602,1.772 0.48,1.206 0.244,1.747 0.01,2.288 -0.223,2.829 -0.437,2.815 -0.544,2.807 -0.759,2.793 -0.665,1.846 -0.57,0.9 -0.476,-0.048 -0.286,-0.028 -0.19,-0.019 0,0"
               inkscape:connector-curvature="0" />
          </g>
          <g
             transform="translate(51.837997,338.3766)"
             id="g121687">
            <path
               id="path121689"
               style="fill:#ffffff;fill-opacity:1;fill-rule:nonzero;stroke:none"
               d="M 0,0 C 0.095,0.007 0.143,0.01 0.238,0.016 0.257,0.018 0.298,0.021 0.298,0.021 0.462,0.032 0.61,-0.106 0.627,-0.29 0.629,-0.315 0.63,-0.329 0.632,-0.357 0.648,-0.522 0.541,-0.665 0.394,-0.677 0.358,-0.68 0.339,-0.681 0.304,-0.684 0.209,-0.691 0.161,-0.695 0.066,-0.703 0.044,-0.469 0.022,-0.235 0,0 M 1.109,-0.32 C 1.107,-0.295 1.105,-0.274 1.103,-0.254 1.061,0.181 0.706,0.58 0.247,0.554 0.198,0.553 0.173,0.551 0.123,0.548 -0.094,0.533 -0.31,0.518 -0.527,0.504 c 0.092,-0.987 0.183,-1.974 0.276,-2.962 0.191,0.019 0.286,0.028 0.477,0.048 -0.037,0.39 -0.074,0.78 -0.11,1.171 0.099,0.009 0.148,0.013 0.247,0.021 0.145,-0.379 0.29,-0.758 0.436,-1.136 0.2,0.02 0.3,0.03 0.5,0.05 -0.161,0.415 -0.321,0.831 -0.482,1.246 0.216,0.18 0.319,0.461 0.292,0.738"
               inkscape:connector-curvature="0" />
          </g>
          <g
             transform="translate(57.379303,339.27789)"
             id="g121691">
            <path
               id="path121693"
               style="fill:#ffffff;fill-opacity:1;fill-rule:nonzero;stroke:none"
               d="m 0,0 c 0.096,-0.918 0.192,-1.835 0.287,-2.754 0.192,0.02 0.287,0.029 0.477,0.048 C 0.669,-1.793 0.573,-0.882 0.477,0.031 0.286,0.018 0.191,0.012 0,0"
               inkscape:connector-curvature="0" />
          </g>
          <g
             transform="translate(59.005203,337.15511)"
             id="g121695">
            <path
               id="path121697"
               style="fill:#ffffff;fill-opacity:1;fill-rule:nonzero;stroke:none"
               d="M 0,0 C 0.257,0.025 0.516,0.049 0.775,0.072 0.797,-0.122 0.807,-0.219 0.829,-0.415 0.411,-0.457 -0.006,-0.498 -0.424,-0.54 -0.521,0.368 -0.617,1.275 -0.713,2.183 -0.296,2.21 0.119,2.237 0.536,2.265 0.558,2.07 0.568,1.972 0.589,1.778 0.332,1.759 0.074,1.741 -0.184,1.722 -0.16,1.501 -0.15,1.39 -0.126,1.168 0.133,1.189 0.391,1.21 0.65,1.229 0.67,1.035 0.681,0.937 0.702,0.743 0.443,0.721 0.186,0.698 -0.073,0.677 -0.049,0.452 -0.024,0.225 0,0"
               inkscape:connector-curvature="0" />
          </g>
          <g
             transform="translate(60.448303,338.9926)"
             id="g121699">
            <path
               id="path121701"
               style="fill:#ffffff;fill-opacity:1;fill-rule:nonzero;stroke:none"
               d="M 0,0 C 0.095,0.008 0.143,0.011 0.239,0.018 0.257,0.019 0.298,0.022 0.298,0.022 0.462,0.034 0.611,-0.091 0.629,-0.255 0.631,-0.28 0.632,-0.291 0.636,-0.315 0.652,-0.463 0.546,-0.594 0.397,-0.606 0.363,-0.608 0.202,-0.621 0.166,-0.625 L 0.07,-0.632 C 0.042,-0.379 0.028,-0.252 0,0 M 1.122,-0.278 C 1.119,-0.257 1.117,-0.236 1.115,-0.219 1.066,0.203 0.68,0.527 0.254,0.503 0.205,0.499 0.18,0.498 0.13,0.494 -0.087,0.48 -0.303,0.467 -0.519,0.452 c 0.096,-0.889 0.195,-1.777 0.291,-2.665 0.192,0.018 0.287,0.027 0.478,0.047 -0.039,0.351 -0.078,0.703 -0.117,1.053 0.1,0.009 0.149,0.013 0.248,0.022 0.146,-0.34 0.295,-0.679 0.442,-1.018 0.2,0.02 0.301,0.029 0.501,0.049 -0.165,0.372 -0.327,0.744 -0.49,1.116 0.207,0.155 0.317,0.409 0.288,0.666"
               inkscape:connector-curvature="0" />
          </g>
          <g
             transform="translate(57.914001,341.0239)"
             id="g121703">
            <path
               id="path121705"
               style="fill:#ffffff;fill-opacity:1;fill-rule:nonzero;stroke:none"
               d="m 0,0 0,-0.878 c 0,-0.033 -0.006,-0.046 -0.033,-0.046 l -0.669,0 c -0.022,0 -0.036,0.016 -0.036,0.04 l 0,0.878 c 0,0.035 -0.013,0.048 -0.042,0.048 l -0.868,0 c -0.026,0 -0.038,0.017 -0.038,0.046 l 0,0.665 c 0,0.026 0.009,0.039 0.035,0.039 l 0.874,0 c 0.026,0 0.039,0.014 0.039,0.043 l 0,0.754 c 0,0.019 0.014,0.032 0.033,0.032 l 0.666,0 C -0.012,1.621 0,1.612 0,1.589 L 0,0.835 C 0,0.799 0.006,0.792 0.036,0.792 l 0.874,0 c 0.026,0 0.035,-0.013 0.035,-0.042 l 0,-0.668 c 0,-0.023 -0.011,-0.04 -0.035,-0.04 l -0.864,0 C 0.01,0.042 0,0.036 0,0"
               inkscape:connector-curvature="0" />
          </g>
          <g
             transform="translate(62.724503,342.727)"
             id="g121707">
            <path
               id="path121709"
               style="fill:#ec1b27;fill-opacity:1;fill-rule:nonzero;stroke:none"
               d="m 0,0 c -0.098,0.729 -0.195,1.458 -0.292,2.186 l -4.664,0 C -4.762,1.239 -4.568,0.291 -4.373,-0.656 -2.916,-0.437 -1.458,-0.219 0,0"
               inkscape:connector-curvature="0" />
          </g>
          <g
             transform="translate(59.877899,342.8665)"
             id="g121711">
            <path
               id="path121713"
               style="fill:#ffffff;fill-opacity:1;fill-rule:nonzero;stroke:none"
               d="M 0,0 C -0.048,0.266 -0.073,0.399 -0.121,0.665 -0.358,0.647 -0.476,0.638 -0.713,0.619 c 0.053,-0.275 0.08,-0.412 0.132,-0.686 -0.161,-0.019 -0.241,-0.029 -0.403,-0.048 -0.112,0.568 -0.224,1.137 -0.335,1.706 0.167,0.004 0.252,0.005 0.419,0.01 0.051,-0.259 0.075,-0.387 0.123,-0.646 0.239,0.014 0.358,0.021 0.596,0.035 -0.046,0.25 -0.069,0.375 -0.114,0.624 0.168,0.004 0.252,0.006 0.42,0.011 C 0.217,1.099 0.31,0.573 0.403,0.047 0.242,0.028 0.161,0.019 0,0"
               inkscape:connector-curvature="0" />
          </g>
          <g
             transform="translate(61.093094,344.18871)"
             id="g121715">
            <path
               id="path121717"
               style="fill:#ffffff;fill-opacity:1;fill-rule:nonzero;stroke:none"
               d="m 0,0 c -0.037,-0.002 -0.057,-0.002 -0.094,-0.004 0.054,-0.335 0.082,-0.502 0.135,-0.836 0.036,0.003 0.056,0.005 0.092,0.008 0.269,0.026 0.42,0.203 0.383,0.447 C 0.479,-0.139 0.275,0.012 0,0 m 0.284,-1.147 c -0.236,-0.028 -0.355,-0.041 -0.592,-0.069 -0.087,0.51 -0.172,1.02 -0.259,1.531 0.247,0.006 0.371,0.009 0.618,0.014 C 0.459,0.328 0.885,0.047 0.945,-0.355 1.004,-0.739 0.672,-1.094 0.284,-1.147"
               inkscape:connector-curvature="0" />
          </g>
        </g>
      </g>
    </g>
  </g>
</svg>
